X: 013
T: My Old Kentucky Home
S: Viola Ruth "Pioneer Western Folk Tunes" 1948 p.1 #3
R: march
Z: 2019 John Chambers <jc:trillian.mit.edu>
M: C|
L: 1/8
K: G
V: 1 name=" "
B2 |\
B2 B2 G2 (AB) | (c>B) (ce) d3 c | c A2 G G2 (FG) | A6 (GA) |\
B2 B2 G2 (AB) | c>B (ce)  d2 (GA) | (BG) (cB) A2 A>F | G6 B2 ||
d3 B c2 e2 | d B3 z2 A2 | G3 A G2 E2 | G6 (MGMA) |\
B2 B2 G2 (AB) | c>B (ce) d2 (GA) | (BG) (cB) A2 (AF) | G6 z2 |]
